brandFactory_export/3.Masa/Señal carretera_3Masa.svg

<?xml version="1.0" encoding="UTF-8"?>
<svg width="24px" height="24px" viewBox="0 0 24 24" version="1.1" xmlns="http://www.w3.org/2000/svg" xmlns:xlink="http://www.w3.org/1999/xlink">
    <title>3.Masa/Señal carretera_3Masa</title>
    <g id="Symbols" stroke="none" stroke-width="1" fill="none" fill-rule="evenodd">
        <g id="3.Masa/Señal-carretera_3Masa" fill="#5CB615" fill-rule="nonzero">
            <path d="M11.8084034,0 C19.5361345,0 23.6235294,4.08739496 23.6235294,11.8151261 C23.6235294,19.5394958 19.5361345,23.6235294 11.8084034,23.6235294 C4.08403361,23.6235294 0,19.5394958 0,11.8151261 C0,4.08739496 4.08403361,0 11.8084034,0 Z M14.1142857,4.8907563 C13.8756303,4.69579832 13.5495798,4.65546218 13.2705882,4.78991597 C12.9983193,4.91428571 12.8235294,5.18655462 12.8235294,5.48907563 L12.8235294,6.71260504 L8.40336134,6.71260504 C8.09411765,6.71260504 7.80504202,6.83361345 7.58655462,7.0487395 C7.36806723,7.26386555 7.24705882,7.55966387 7.25035197,7.86554622 L7.25035197,18 C7.25035197,18.2722689 7.47226891,18.4907563 7.74117647,18.4907563 L11.2941176,18.4907563 C11.5663866,18.4907563 11.7848739,18.2689076 11.7848739,18 L11.7848739,11.4621849 L12.8268908,11.4621849 L12.8268908,12.6756303 C12.8268908,12.9747899 13.0016807,13.2470588 13.2705882,13.3747899 C13.5495798,13.5058824 13.8722689,13.4689076 14.1512605,13.2403361 L17.8319328,9.67731092 C18.0067227,9.52941176 18.107563,9.31428571 18.1110115,9.08571429 C18.1142857,8.87058824 18.0201681,8.66554622 17.8621849,8.5210084 L14.1142857,4.8907563 Z" id="Señal-carretera_3Masa"></path>
        </g>
    </g>
</svg>

<svg width="24" height="24" viewBox="0 0 24 24" xmlns="http://www.w3.org/2000/svg"><path d="M11.808 0c7.728 0 11.816 4.087 11.816 11.815 0 7.724-4.088 11.809-11.816 11.809C4.084 23.624 0 19.539 0 11.815 0 4.087 4.084 0 11.808 0zm2.306 4.89a.787.787 0 00-.843-.1.767.767 0 00-.447.7v1.223h-4.42c-.31 0-.599.12-.817.336a1.13 1.13 0 00-.337.817V18c0 .272.222.49.491.49h3.553c.272 0 .49-.221.49-.49v-6.538h1.043v1.214c0 .299.175.571.444.699.279.13.601.094.88-.135l3.68-3.563a.789.789 0 00.28-.591.754.754 0 00-.249-.565l-3.748-3.63z" fill="#5CB615" fill-rule="nonzero"/></svg>
